docs/.gitbook/assets/icon-brush-16@light.svg

<svg width="32" height="32" viewBox="0 0 16 16" fill="none" xmlns="http://www.w3.org/2000/svg">
<rect x="0" y="0" width="16" height="16" fill="#fff"/>
<path fill-rule="evenodd" clip-rule="evenodd" d="M10.7296 3.02191L6.26006 9.27666C6.84426 9.54742 7.32667 10.0006 7.63416 10.5631L12.9182 5.32498C12.9297 5.31363 12.9415 5.30265 12.9537 5.29206C13.6491 4.68637 13.6859 3.61833 13.0338 2.96622C12.3894 2.32184 11.3389 2.35014 10.7296 3.02191ZM7.98201 12.3304C7.81753 13.8318 6.54519 15 5 15H1.75C1.47794 15 1.2272 14.8527 1.0948 14.615C0.962425 14.3774 0.969093 14.0867 1.11222 13.8554L1.11229 13.8552L1.11326 13.8537L1.11864 13.8449L1.14164 13.8068C1.16206 13.7726 1.19212 13.7218 1.22908 13.6575C1.3032 13.5284 1.40398 13.3469 1.51002 13.1384C1.73103 12.7039 1.94089 12.2172 2.01488 11.8513C2.04304 11.7121 2.06167 11.5379 2.07078 11.34C2.12494 10.1632 3.03118 9 4.37759 9H4.61413L9.53217 2.11769C9.54614 2.09814 9.56104 2.07928 9.57682 2.06116C10.7533 0.710398 12.8278 0.638949 14.0944 1.90556C15.355 3.16609 15.2903 5.22677 13.9583 6.40614L7.98201 12.3304ZM3.00305 13.5H5C5.82843 13.5 6.5 12.8284 6.5 12C6.5 11.1716 5.82843 10.5 5 10.5H4.37759C3.99578 10.5 3.59449 10.8594 3.56919 11.409C3.55801 11.652 3.5337 11.9084 3.48512 12.1487C3.39373 12.6006 3.19576 13.0903 3.00305 13.5Z" fill="#000"/>
</svg>

<svg xmlns="http://www.w3.org/2000/svg" width="32" height="32" fill="none" viewBox="0 0 16 16"><path fill="#fff" d="M0 0h16v16H0z"/><path fill="#000" fill-rule="evenodd" d="M10.73 3.022 6.26 9.277c.584.27 1.067.724 1.374 1.286l5.284-5.238.036-.033a1.592 1.592 0 1 0-2.224-2.27M7.982 12.33A3 3 0 0 1 5 15H1.75a.75.75 0 0 1-.638-1.145l.001-.001.006-.01.023-.037a10 10 0 0 0 .368-.669c.221-.434.43-.92.505-1.287a3.5 3.5 0 0 0 .056-.511C2.125 10.163 3.03 9 4.378 9h.236l4.918-6.882.045-.057a3.092 3.092 0 1 1 4.381 4.345zM3.003 13.5H5a1.5 1.5 0 0 0 0-3h-.622c-.382 0-.784.36-.809.909a5 5 0 0 1-.084.74c-.091.452-.29.941-.482 1.351" clip-rule="evenodd"/></svg>
